X:1
T:Trip to the Cottage -- Jig
R:jig
B:Ryan's Mammoth Collection
Z: Contributed by Ray Davies, ray:davies99.freeserve.co.uk
M:6/8
L:1/8
K:Glyd % Two sharps in the book
B/c/|dBB BGG|cAA AFD|DGG FAA|GBB ABc|
dBB BGG|cAA AFD|DGG FAA|BGG G2:|
K:G
|:d|gfe dcB|edc Bcd|ecA dBG|FAG FED|
gfe dcB|edc Bcd|efg fed|edd d2:|
